!!!OTL: Ich mag dich nicht (86), S. 230
!!!id: T0244
**kern
*clefG2
*k[f#]
*G:
{4d
=1
4g
4b
4d
4g
=2
2e
4e}
=3
{4cc
=4
4b
4b
4a
4a
=5
2g}
4r
=6
{4g
=7
4g
4a
4cc
4a
=8
4g
4b
4b}
=9
{4g
=10
4f#
4a
8cc
8b
8a
8g
=11
4g
4b
4b}
=12
{4g
=13
8e
8e
8e
8e
4e
4g
=14
8d
8d
8d
8d
4d}
=15
{4cc
=16
4b
4b
4a
4a
=17
2g}
4r
==
*-
!!!minrhy: 8
!!!meters: 4/4 ]  ZZ[6
!!!cut: Ich mag dich nicht (86), S. 230
!!!reg: Luxemburg
!!!trd: Singendes Volk, Esch-Alzette 1937 posth.
!!!rhy1: X_  X_X_X_X_  X__X_   (x2)
!!!rhy2: X_  X_X_X_X_  X__0
!!!key: T0244  08  G 4/4 ]  ZZ[6
!!!mod: HEPTATONIK IONISCH]  AMBITUS[7b
!!!kad: -6133-51
!!!akz: 1-5-6-6_321_1413_-7413_-6-6-5-5_321_
!!!fot: 'a__b__c__cw_d__b__
!!!for: 'a__a__aw_b__c__a__
!!!fok: '^a_\__~a_~a_\__\__
!! PHRAS[AUFTAKTIG]
!!!fkt: Liebeslieder
!!!bem: Esch-Alzette, Dominik M&uuml;ller, 1916
!! THILL, Mathias:
!! PR[19] 2K[6] 2G[20] 3K[4] 3G[2] 4A[7] 4Ü[0] 5A[2] 6K[0] 6G[0]
!! 7K[0] 7G[0] 8A[0] MEHR[0] SI[41] ABS[54] SR[26] SP[15]
!! ST[16] 2k[9] 2g[20] 3k[6] 3g[4] 4d[0] 4ü[0] 5d[0] 6k[0] 6g[2]
!! 7k[0] 7g[0] 8d[0] mehr[0] si[41] dm[0] sr[30] sp[11]
!! 1F[10] 2F[76] 3F[14] 4F[0] LF[0] 2P[0] 3P[0] 4P[0] TRI[0] DF[3] AB[59]
!! TF[0] U3K[0] U3[0] U4[0] U4Ü[0] U5[4] U6K[0] U6[0] U7K[0] U7[0]
!! N1[9] N2K[0] N2[13] N3K[0] N3[24] N4[24] N4Ü[0] N5[20] N6K[0] N6[5]
!!!n7k: 0] N7[0] O1[2] O2K[0] O2[0] O3K[0] O3[0] HÖ[0
!!!RNB: symbol: &uuml;  = u umlaut (UTF-8: Ã¼)
